!!!!SEGMENT: pl-wumfc--n48071_maszynski-piotr--a-jesli.krn
!!!cenid: 18xx:4075
!!!COM: Maszyński, Piotr
!!!COM-rismID: pe41023858
!!!CDT:
!!!CNT:
!!!OTL: A jeśli...
!!!PDT:
!!!AGN:
!!!SMS-siglum: PL-Wumfc
!!!SMS-shelfmark: N48071
!!!SMS-shelfwork: W
!!!SMS-variant:
!!!SMS-altvar: f#
!!!NIFC-rismSourceID: 1001177925
!!!NIFC-rismChildID: 1001177925
!!!NIFC-islandoraID: pl-wumfc:8060
!!!URL-pdf-islandora: https://repozytorium.nifc.pl/islandora/object/pl-wumfc%3A8060/datastream/PDF/view
!!!URL-scan: https://polish.musicsources.pl/pl/lokalizacje/galeria/druki-muzyczne/12521 @EN{Scan on Polish Music Sources Website} @PL{Skany w portalu Dziedzictwo Muzyki Polskiej w otwartym dostępie}
!!!IIIF:
!!!ONB-nifc:
!!!AIN: 2 piano 1 vox
!!!key:
**kern	**kern	**dynam	**kern	**text	**dynam
*part3	*part2	*part2	*part1	*part1	*part1
*staff3	*staff2	*	*staff1	*staff1	*
*I"Piano	*I"Fortepian.	*	*I"Śpiew.	*	*
*	*I'pf	*	*I'Ś	*	*
*Ipiano	*Ipiano	*	*Ivox	*	*
*ICklav	*ICklav	*	*ICvox	*	*
*clefF4	*clefG2	*	*clefG2	*	*
*k[f#c#g#]	*k[f#c#g#]	*	*k[f#c#g#]	*	*
*f#:	*f#:	*	*f#:	*	*
*M3/4	*M3/4	*	*M3/4	*	*
=1	=1	=1	=1	=1	=1
*MM60	*MM60	*	*MM60	*	*
!	!LO:TX:b:t=senza rigore di tempo	!	!LO:TX:a:t=Adagio.	!	!
!	!	!	!LO:TX:a:t=[quarter]=60	!	!
([2.F#\	(4A/ 4c# 4f#	sf	2.r	.	.
.	4c#/ 4f# 4a	.	.	.	.
.	4f#/ 4a 4cc#	.	.	.	.
=2	=2	=2	=2	=2	=2
4F#\]	4a\) 4cc# 4ff#	.	2.r	.	.
4E#X\	4r	.	.	.	.
4C#/)	4r	.	.	.	.
=3	=3	=3	=3	=3	=3
([2.En\	4r	sf	2.r	.	.
.	(4A/ 4c# 4f#	.	.	.	.
.	4c#/ 4f# 4a	.	.	.	.
=4	=4	=4	=4	=4	=4
4E\]	4f#/) 4a 4cc#	.	2.r	.	.
4D#X\	(4b/	.	.	.	.
4Dn\)	4B#X/ 4f#	.	.	.	.
=5	=5	=5	=5	=5	=5
[2.C#/	4a/)	.	2.r	.	.
.	(4A/ 4f#	.	.	.	.
.	4c#/) 4a	.	.	.	.
=6	=6	=6	=6	=6	=6
*	*^	*	*	*	*
*	*	*^	*	*	*	*
2.C#/_	2cc#/	(4A\	2.e/	.	2.r	.	.
.	.	4B\	.	.	.	.	.
.	4a/	4c#\)	.	.	.	.	.
!LO:LB:g=original	!LO:LB:g=original	!LO:LB:g=original	!	!	!	!	!
*	*v	*v	*v	*	*	*	*
=7	=7	=7	=7	=7	=7
!	!	!	!	!	!LO:DY:a
(4C#/]	(2A/ 2d 2f#	.	4d/	A	mf
4BB/	.	.	4f#/	je-	.
4AA/)	4c#/) 4f# 4a	.	4a/	-śli	.
=8	=8	=8	=8	=8	=8
*	*^	*	*	*	*
2.GG#/ 2.F#	(4.a/	2.B\ 2.d#X	.	4.a/	cie-	.
.	8g#/L	.	.	8g#/	-bie	.
.	8f#/	.	.	8f#/	nie	.
.	8d#/J)	.	.	8d#X/	spa-	.
*	*v	*v	*	*	*	*
=9	=9	=9	=9	=9	=9
2C#\	(4E/ 4G# 4c#	.	4c#/	-mię-	.
.	4G#/ 4c# 4e	.	4e/	-ta,	.
4Cn\	4G#/) 4e 4g#	.	4g#/	ty	.
=10	=10	=10	=10	=10	=10
*	*^	*	*	*	*
(2.BB/	(4.e^/ 4.g#	2.A\	.	4.g#^>/	Wia-	.
.	8d#X/L 8f#	.	.	8f#/	-ro	.
.	8c#/ 8e	.	.	8e/	świę-	.
.	8d#/J 8f#	.	.	8f#/	-ta,	.
=11	=11	=11	=11	=11	=11	=11
!	!LO:TX:b:t=rall.	!	!	!LO:TX:a:t=rall.	!	!
4EE/) 4E	4e/) 4g#	4G#/ 4B	.	8g#/	mo-	.
.	.	.	.	8e/	-je	.
2BBB/ 2BB	2B^</ 2f# 2b	(4e\	.	(4b^>/	ser-	.
.	.	4d#X\)	.	8f#/L	.	.
.	.	.	.	8a/J)	.	.
!LO:LB:g=original	!LO:LB:g=original	!LO:LB:g=original	!	!LO:LB:g=original	!	!
=12	=12	=12	=12	=12	=12	=12
4.EE;</ 4.E	4.g#;/	4.G#\ 4.e	.	4g#;/	-ce	.
.	.	.	.	8r	.	.
!LO:TX:a:t= a tempo	!	!	!	!LO:TX:a:t= a tempo	!	!LO:DY:a
8r	8g#/L	8r	.	8g#/	to	<
4r	8g#/	4r	.	8g#/	niech	.
.	8g#/J	.	.	8g#/	u-	[[
*	*v	*v	*	*	*	*
=13	=13	=13	=13	=13	=13
!	!	!	!	!	!LO:DY:a
4AA\ 4A	4c#/ 4e 4cc#	f	8cc#\	-pa-	f
.	.	.	8cc#\	-dnie	.
4GG#/ 4G#	4B/ 4e 4b	.	4b\	mi	.
4FF#/ 4F#	4A/ 4e 4a	.	4a/	ze-	.
=14	=14	=14	=14	=14	=14
*	*^	*	*	*	*
!	!	!	!LO:HP:t=dim.	!	!	!
2EE/ 2E	4g#/	2A\ 2B#X	>	4g#/	-schnię-	.
!	!	!	!	!	!	!LO:HP:t=dim.
.	8f#/L	.	.	8f#/	-ta	>
.	8e/	.	.	8e/	pra-	.
4DD#X/ 4D#X	8g#/	4G#\ 4B#	.	8g#/	-wi-	.
.	8f#/J	.	.	8f#/	-ca	.
*	*v	*v	*	*	*	*
=15	=15	=15	=15	=15	=15
*^	*	*	*	*	*
(4C#/	2.CC#\	(2G#/ 2c# 2e	.	4e/	mo-	.
!	!	!	!	!	!	!LO:DY:a
4BB/	.	.	.	4e/	-ja,	<
8AA/L	.	8c#/L 8d#X 8f#	.	8f#/	niech	.
8GG#/J)	.	8c#/J) 8e#X 8g#	.	8g#/	osz-	[[
!LO:PB:g=original	!	!LO:PB:g=original	!	!	!LO:PB:g=original	!
*v	*v	*	*	*	*	*
=16	=16	=16	=16	=16	=16
*	*^	*	*	*	*
2FF/ny	(4B^/ 4f# 4b	2c#\	.	4b^\	-czer-	.
.	8A/L 8a	.	.	8a/	-ce	.
.	8G#/J 8g#	.	.	8g#/	i	.
4GG\-y	16F#</LL 16f#	4c#\	.	16f#/	wro-	.
.	16E</ 16e	.	.	16e/	-gi,	.
.	16D#X</ 16d#X	.	.	16d#X/	bę-	.
.	16E</JJ) 16e	.	.	16e/	-dą	.
=17	=17	=17	=17	=17	=17	=17
!	!	!	!	!	!	!LO:DY:a
4AA	2G#</ 2g#	4r	>	2g#/	mo-	>
4AA\ 4AAA\	.	4c#\	.	.	.	.
4BB\ 4BBB\	4F#</ 4f#	4d#X\	]	4f#/	-i	]
*	*v	*v	*	*	*	*
=18	=18	=18	=18	=18	=18
(8EE/L	[4G#/ [4e [4g#	.	4g#/	sę-	.
8BB	.	.	.	.	.
8E/J	8G#/] 8e] 8g#]	.	8g#/	-dzie	.
8r	8G#/L	.	8g#/	i	.
4r	8B/	.	8g#/	nie-	.
.	8e/J)	.	8g#/	-chaj	.
=19	=19	=19	=19	=19	=19
!	!	!	!	!	!LO:DY:a
(<4EE 4E	8e/L 8g#	<	8g#/	pa-	<
.	8B/	.	8g#/	-mięć	.
4DD 4D	8f#/ 8a	.	4a/	mo-	.
.	8A/	.	.	.	.
4BBB 4BB	8d/ 8g# 8b	.	4b\	-ja	.
.	8B/J	.	.	.	.
!LO:lB:g=original	!LO:lB:g=original	!	!LO:lB:g=original	!	!
=20	=20	=20	=20	=20	=20
4AA\ 4A	8e/L 8a 8cc#	.	4cc#\	bę-	.
.	8c#/	.	.	.	.
4GG#/ 4G#	8e/ 8a 8cc#	.	4cc#\	-dzie	.
.	8c#/	.	.	.	.
4FF#/ 4F#)	8f#/ 8a 8cc#	.	4cc#\	prze-	.
.	8c#/J	.	.	.	.
=21	=21	=21	=21	=21	=21
*^	*	*	*	*	*
*	*ped	*	*	*	*	*
4r	[2.CCC#\ [2.CC#	2e#X/ 2g# 2cc# 2ee#X	ff	2.ee#X\	-klę-	.
[2EE#X/ [2GG# [2C# [2E#X	.	.	.	.	.	.
.	.	[4G#/ [4c# [<4e# [<4g#	.	.	.	.
=22	=22	=22	=22	=22	=22	=22
*	*^	*	*	*	*	*
!LO:TX:a:t=m.s.	!	!	!	!	!	!	!
*	*Xped	*	*	*	*	*	*
2.EE#/] 2.GG#] 2.C#] 2.E#]	2.CCC#\] 2.CC#]	2.cc#/ 2.ee#X	2.G#\] 2.c#] 2.e#] 2.g#]	.	2cc#\	-ta!	.
.	.	.	.	.	4r	.	.
*	*v	*v	*	*	*	*	*
=23	=23	=23	=23	=23	=23	=23
*	*ped	*	*	*	*	*
4r	[2.CCC#\ [2.CC#	2f#\ 2a 2dd 2ff#	.	2.r	.	.
[2D/ [2F# [2A	.	.	.	.	.	.
.	.	[4d/ [4f# [<4a	.	.	.	.
=24	=24	=24	=24	=24	=24	=24
*	*^	*	*	*	*	*
!LO:TX:a:t=m.s.	!	!	!	!	!	!	!
2.D/] 2.F#] 2.A]	2.CCC#\] 2.CC#]	2.dd/ 2.ff#	2.d\] 2.f#] 2.a]	.	2.r	.	.
=25	=25	=25	=25	=25	=25	=25	=25
4r	[2.CCC#\ [2.CC#	2.r	2g#\ 2cc# 2ee#X 2gg#	.	2.r	.	.
[2C#/ [2E#X [2G#	.	.	.	.	.	.	.
.	.	.	[4c#/ [4e#X [<4g#	.	.	.	.
=26	=26	=26	=26	=26	=26	=26	=26
!LO:TX:a:t=m.s.	!	!	!	!	!	!	!
2C#/] 2E#] 2G#]	2.CCC#\] 2.CC#]	2cc#/ 2ee#X 2gg#	2c#\] 2e#] 2g#]	.	4r	.	.
.	.	.	.	.	4r	.	.
!	!	!	!	!	!	!	!LO:DY:a
4r	.	4ryy	(4cc#\ 4ccc#	f	4cc#\	A	f
!LO:LB:g=original	!	!LO:LB:g=original	!LO:LB:g=original	!	!	!LO:LB:g=original	!
*v	*v	*v	*	*	*	*	*
=27	=27	=27	=27	=27	=27
*ped	*	*	*	*	*
(8FFF#/L 8FF#	2ff#\) 2aa 2ccc# 2fff#	.	4.ff#\	je-	.
16AA/L	.	.	.	.	.
16C#/JJ	.	.	.	.	.
16F#\LL	.	.	.	.	.
16A\	.	.	.	.	.
16c#\	.	.	8f#/	-śli	.
16f#\JJ)	.	.	.	.	.
4r	4ff#\ 4aa 4ccc# 4fff#	.	8a/	cie-	.
*Xped	*	*	*	*	*
.	.	.	8cc#\	-bie	.
=28	=28	=28	=28	=28	=28
*ped	*	*	*	*	*
(8FFF#/L 8FF#	2ee\ 2aa 2eee	.	2ee\	ja	.
16AA/L	.	.	.	.	.
16C#/JJ	.	.	.	.	.
16F#\LL	.	.	.	.	.
16A\	.	.	.	.	.
16c#\	.	.	.	.	.
16f#\JJ)	.	.	.	.	.
*Xped	*	*	*	*	*
4r	4dd#X\ 4aa 4ddd#X	.	4dd#X\	za-	.
=29	=29	=29	=29	=29	=29
*	*^	*	*	*	*
*ped	*	*	*	*	*	*
(8FFF#/L 8FF#	2aa/	2.ddn\ 2.dddn	.	2.ddn\	-pom-	.
16BB/L	.	.	.	.	.	.
16D/JJ	.	.	.	.	.	.
16F#\LL	.	.	.	.	.	.
16B\	.	.	.	.	.	.
16d\	.	.	.	.	.	.
16f#\JJ)	.	.	.	.	.	.
*Xped	*	*	*	*	*	*
4r	4gg#/	.	.	.	.	.
*	*v	*v	*	*	*	*
=30	=30	=30	=30	=30	=30
*ped	*	*	*	*	*
(8FFF#/L 8FF#	2cc#\ 2aa 2ccc#	.	4cc#\	-nę	.
16AA/L	.	.	.	.	.
16C#/JJ	.	.	.	.	.
16F#\LL	.	.	8r	.	.
16A\	.	.	.	.	.
16A\	.	.	8cc#\	Oj-	.
16c#\JJ)	.	.	.	.	.
*Xped	*	*	*	*	*
4F#\ 4f#	4b\ 4dd#X 4ff# 4bb	.	8.b\	-czy-	.
.	.	.	16f#/	-zno	.
!LO:LB:g=original	!LO:LB:g=original	!	!LO:LB:g=original	!	!
=31	=31	=31	=31	=31	=31
!	!	!LO:HP:t=dim.	!	!	!
2E\ 2e	2cc#\ 2ee 2aa 2ccc#	>	4.a/	mo-	.
!	!	!	!	!	!LO:HP:t=dim.
.	.	.	8cc#\	-ja,	>
4D#X\	4B/ 4f# 4b	.	8.b\	zie-	.
.	.	.	16f#/	-mio	.
=32	=32	=32	=32	=32	=32
*	*^	*	*	*	*
2Dn\	4a/	2B#X\ 2f#	.	4a/	świę-	.
.	2g#/	.	.	8g#/	-ta,	.
.	.	.	.	8g#/	to	.
4C#/	.	4c#\ 4e#X	.	8g#/	nie-	.
.	.	.	.	8g#/	-chaj	.
=33	=33	=33	=33	=33	=33	=33
(8BB/L	(8g#/L	2d\ 2f#	.	8g#/	pom-	.
8AA/J	8a/J	.	.	8a/	-rą	.
4GG#/	4b/	.	.	4b/	bez	.
4BB/)	4g#/)	4d\ 4f#	.	4g#/	po-	.
=34	=34	=34	=34	=34	=34	=34
2C#/	4c#/ 4f# 4g#	2ryy	.	4f#/	-tom-	.
.	8e#X/L	.	.	8e#X/	-ne	.
.	8f#/J	.	.	8f#/	sy-	.
((4BB#X/	8g#/L	4G#\	.	8g#/	-na-	.
.	8d#X/J	.	.	8d#X/	-czki	.
!LO:LB:g=original	!LO:LB:g=original	!	!	!LO:LB:g=original	!	!
*	*v	*v	*	*	*	*
=35	=35	=35	=35	=35	=35
8BBn/L)	(8G#/L 8c# 8e#X	.	8e#X/	mo-	.
8AA/J	8A/J 8c# 8f#	.	8f#/	-je	.
4GG#/)	4B/ 4e# 4g#	.	4g#/	pa-	.
4FF#/	4c#/) 4f# 4a	.	4a/	-cho-	.
=36	=36	=36	=36	=36	=36
(8EE/L	2d/ 2g# 2b	.	4b\	-lę-	.
16BB/L	.	.	.	.	.
16E/JJ	.	.	.	.	.
16G#/LL	.	.	4g#/	-ta	.
16B/	.	.	.	.	.
16e/	.	.	.	.	.
16ee>\JJ	.	.	.	.	.
4eee>\)	4ryy	.	4e/	i	.
=37	=37	=37	=37	=37	=37
!	!	!	!	!	!LO:DY:a
4A\ 4c# 4e	4a\ 4cc# 4ee 4aa	f	8a/	nie-	f
.	.	.	8a/	-chaj	.
4E\ 4A 4c#	4cc#\ 4ee 4aa 4ccc#	.	8cc#\	ser-	.
.	.	.	8cc#\	-ce	.
4C#\ 4E 4A	4ee\ 4aa 4ccc# 4eee	.	8.ee\	me	.
.	.	.	16ee\	bez	.
=38	=38	=38	=38	=38	=38
*^	*^	*	*	*	*
2.d/	(4D\	(4ffn/ 4aa 4bb	2.b\	.	2b\	wia-	.
.	4E\	4ee/ [4gg#	.	.	.	.	.
.	4E#X\)	4dd/) 4gg#]	.	.	8b\	-ry	.
.	.	.	.	.	8b\	przy-	.
!LO:LB:g=original	!LO:LB:g=original	!	!	!	!LO:LB:g=original	!	!
*v	*v	*	*	*	*	*	*
*	*v	*v	*	*	*	*
=39	=39	=39	=39	=39	=39
!	!	!	!	!	!LO:DY:a
!	!	!	!	!	!LO:DY:a
4F#\ 4c#	4a\ 4cc# 4ff# 4aa	f <	8a/	-gnio-	f <
.	.	.	8a/	-tą	.
4E\ 4e	4cc#\ 4ff# 4aa 4ccc#	.	8cc#\	brze-	.
.	.	.	8cc#\	-mię	.
4D\ 4d	4ff#\ 4aa 4ccc# 4fff#	[	8ff#\	i	.
.	.	.	8ff#\	cię-	[[
=40	=40	=40	=40	=40	=40
2.C#\ 2.c#	4aa\ 4ccc# 4fff# 4aaa	.	4cc#\	-ża-	.
.	(4b\ 4dd#X 4gg#	.	4b\	-ry	.
.	4cc#\ 4ee 4aa	.	4a/	o-	.
=41	=41	=41	=41	=41	=41
*	*^	*	*	*	*
2.CC#/ 2.C#	2dd#X/ 2ff#	2.b\ 2.bb	.	2.g#/	-grom-	.
.	4ee#X/ 4gg#	.	.	.	.	.
*	*v	*v	*	*	*	*
=42	=42	=42	=42	=42	=42
4ryy	4a\) 4ff# 4aa	.	2f#/	-ne.	.
([2F#\	(4c#/ 4f# 4a	sf	.	.	.
.	4f#/ 4a 4cc#	.	4r	.	.
=43	=43	=43	=43	=43	=43
4F#\]	4a\) 4cc# 4ff#	.	2.r	.	.
4E#X\	4r	.	.	.	.
4C#/)	4r	.	.	.	.
!LO:LB:g=original	!LO:LB:g=original	!	!	!LO:LB:g=original	!
=44	=44	=44	=44	=44	=44
([2.En\	4r	sf	2.r	.	.
.	(4A/ 4c# 4f#	.	.	.	.
.	4c#/ 4f# 4a	.	.	.	.
=45	=45	=45	=45	=45	=45
4E\]	4f#/) 4a 4cc#	.	2.r	.	.
4D#X\	(4b/	.	.	.	.
4Dn\)	4B#X/ 4f#	.	.	.	.
=46	=46	=46	=46	=46	=46
[2.C#/	4a/)	.	2.r	.	.
.	(4A/ 4f#	.	.	.	.
.	4c#/) 4a	.	.	.	.
=47	=47	=47	=47	=47	=47
*	*^	*	*	*	*
*	*	*^	*	*	*	*
2.C#/_	2cc#/	(4A\	2.e#X/	>	2.r	.	.
.	.	4B\	.	.	.	.	.
.	4a/	4c#\)	.	.	.	.	.
*	*v	*v	*v	*	*	*	*
=48	=48	=48	=48	=48	=48
!	!	!	!	!	!LO:DY:a
(4C#/]	(2A/ 2d 2f#	] p	4d/	A	mp
4BB/	.	.	4f#/	je-	.
4AA/)	4c#/) 4f# 4a	.	4a/	-śli	.
=49	=49	=49	=49	=49	=49
*	*^	*	*	*	*
2.GG#/ 2.F#	(4.a/	2.B#X\ 2.d#X	.	(4.a/	cie-	.
.	8g#/L	.	.	8g#/)	.	.
.	8f#/	.	.	8f#/L	-bie	.
.	8d#/J)	.	.	8d#X/J	.	.
!LO:LB:g=original	!LO:LB:g=original	!	!	!LO:LB:g=original	!	!
*	*v	*v	*	*	*	*
=50	=50	=50	=50	=50	=50
(8CC#/L	([4c#/	.	(4c#/	stłu-	.
8GG#/J	.	.	.	.	.
4C#/	8c#/L]	.	4e/)	.	.
.	8E/	.	.	.	.
4Cn/)	8G#/	.	4g#/	-mię	.
.	8c#/J)	.	.	.	.
=51	=51	=51	=51	=51	=51
*^	*^	*	*	*	*
2.BB/	2BB\	([4e/	8e\L	.	(4.g#/	w ło-	.
.	.	.	8B\J	.	.	.	.
.	.	8e/L]	2A\	.	.	.	.
.	.	8d#X/	.	.	8f#/)	.	.
.	4BBB\	8c#/ 8e	.	.	8e/	-nie	.
.	.	8d#/J) 8f#	.	.	8f#/	oj-	.
*v	*v	*	*	*	*	*	*
=52	=52	=52	=52	=52	=52	=52
!	!LO:TX:b:t=rall.	!	!	!LO:TX:a:t=rall.	!	!
4EE/	8e/L 8g#	4ryy	.	8g#/	-czy-	.
.	8B/J	.	.	8e/	-sta	.
2BB/	2f#/	8c#\L 8e	.	(4b/	mo-	.
.	.	8B\ 8d#X	.	.	.	.
.	.	8A\ 8c#	.	8f#/L	.	.
.	.	8B\J 8d#	.	8a/J)	.	.
*	*v	*v	*	*	*	*
=53	=53	=53	=53	=53	=53
8EE/L	[4G#/ [4e [4g#	.	4g#;/	-wo,	.
8BB/J	.	.	.	.	.
4E;\	8G#;/L] 8e] 8g#]	.	4r	.	.
.	8d#X/	<	.	.	.
!	!	!	!LO:TX:a:t=quasi recit.	!	!LO:DY:a
4E\	8dn/ 8g#	.	8g#/	to	<
.	8G#/J	.	8g#/	u-	.
!LO:PB:g=original	!LO:PB:g=original	!	!LO:PB:g=original	!	!
=54	=54	=54	=54	=54	=54
*	*^	*	*	*	*
!	!LO:TX:b:t=colla parte	!	!	!	!	!
(4A\	(4cc#/	8g#\L	.	12cc#\	-łom-	.
.	.	.	.	12cc#\	-ne	.
.	.	8c#\J	.	.	.	.
.	.	.	.	12cc#\	me	.
4G#\	4b/	8d#X\L	.	8b\	ser-	.
.	.	8e#X\J	.	8b\	-ce	.
4F#\	4a/	8f#\L	.	16a/	w bó-	.
.	.	.	.	16a/	-lu	.
.	.	8A\J	.	16a/	niech	.
.	.	.	.	16a/	u-	.
=55	=55	=55	=55	=55	=55	=55
2E\	4g#/	8B#X\L	.	12g#/	-to-	.
.	.	.	.	12g#/	-nie	.
.	.	8c#\J	.	.	.	.
.	.	.	.	12g#/	i	.
.	8f#/L	8d#X\L	.	8f#/	niech	.
.	8e/	8G#\	.	8e/	się	.
4D#X\)	8g#/	8A#X\	.	16g#/	kur-	.
.	.	.	.	16g#/	-czy	.
.	8f#/J)	8B#\J	.	16f#/	wia-	.
.	.	.	.	16f#/	-ro-	.
!LO:LB:g=original	!LO:LB:g=original	!LO:LB:g=original	!	!LO:LB:g=original	!	!
=56	=56	=56	=56	=56	=56	=56
(8C#/L	(2e/	2.c#\	.	4e/	-łom-	.
8Cn/	.	.	.	.	.	.
8BB/	.	.	.	8e/	-ne,	.
8BB-X/	.	.	.	8r	.	.
8AA/	8d#X/L 8f#	.	.	8f#/	niech	.
8GG#/J)	8e#X/J) 8g#	.	.	8g#/	ze	.
=57	=57	=57	=57	=57	=57	=57
2FF#/	(8B^/ 8f# 8b	2c#\	.	(8b^>/	szpon	.
.	4A/ 4a	.	.	4a/	.	.
.	8G#/ 8g#	.	.	8g#/)	.	.
[4AA\	16F#</LL 16f#	4c#\	.	16f#/	tros-	.
.	16E</ 16e	.	.	16e/	-ka	.
.	16D#X</ 16d#X	.	.	16d#X/	mię	.
.	16E</JJ) 16e	.	.	16e/	nie	.
=58	=58	=58	=58	=58	=58	=58
!	!	!	!	!	!	!LO:DY:a
4AA\]	2G#</ 2g#	4r	>	(2g#/	pu-	>
4AAA\ 4AA	.	4c#\	.	.	.	.
4BBB\ 4BB	4F#</ 4f#	4d#X\	.	4f#/)	.	]]
*	*v	*v	*	*	*	*
=59	=59	=59	=59	=59	=59
8EE/L	[4G#/ [4e [4g#	] <	4g#/	-ści,	.
8BB/	.	.	.	.	.
8E/J	8G#/] 8e] 8g#]	.	8r	.	.
!	!	!	!	!	!LO:DY:a
8r	8G#/L	.	8g#/	niech	<
4r	8B/	.	8g#/	ję-	.
.	8e/J	[[	8g#/	-zyk	[[
!LO:LB:g=original	!LO:LB:g=original	!	!LO:LB:g=original	!	!
=60	=60	=60	=60	=60	=60
!	!	!LO:HP:t=cresc. ed animando	!	!	!LO:HP:t=cresc. ed animando
4EE/ 4E	8e/L 8g#	<	8g#/	przyl-	<
.	8B/J	.	8g#/	-gnie	.
4DD/ 4D	8f#/L 8a	.	4a/	do	.
.	8A/J	.	.	.	.
4BBB/ 4BB	8d/L 8g# 8b	.	4b/	cze-	.
.	8B/J	.	.	.	.
=61	=61	=61	=61	=61	=61
4AAA/ 4AA	8e/L 8a 8cc#	.	4cc#\	-lu-	.
.	8c#/	.	.	.	.
4GGG#/ 4GG#	8e/ 8a 8cc#	.	4cc#\	-ści	.
.	8c#/	.	.	.	.
4FFF#/ 4FF#	8f#/ 8a 8cc#	.	4cc#\	przy	.
.	8c#/J	.	.	.	.
=62	=62	=62	=62	=62	=62
*^	*	*	*	*	*
!	!	!	!	!LO:TX:a:t=Tempo I.	!	!LO:DY:a
*	*ped	*	*	*	*	*
4r	[2.CCC#\ [2.CC#	2e#X/ 2g# 2cc# 2ee#X	ff	2.ee#X\	zgo-	ff
[2EE#X/ [2GG# [2C# [2E#X	.	.	.	.	.	.
.	.	[4G#/ [4c# [<4e# [<4g#	.	.	.	.
=63	=63	=63	=63	=63	=63	=63
*	*^	*	*	*	*	*
!LO:TX:a:t=m.s.	!	!	!	!	!	!	!
2.EE#/] 2.GG#] 2.C#] 2.E#]	2.CCC#\] 2.CC#]	2.cc#/ 2.ee#X	2.G#\] 2.c#] 2.e#] 2.g#]	.	2.cc#\	-nie.	.
*	*v	*v	*	*	*	*	*
=64	=64	=64	=64	=64	=64	=64
*	*Xped	*	*	*	*	*
4r	[2.CCC#\ [2.CC#	2f#\ 2a 2dd 2ff#	.	2.r	.	.
*	*ped	*	*	*	*	*
[2D/ [2F# [2A	.	.	.	.	.	.
.	.	[4d/ [4f# [<4a	.	.	.	.
!LO:LB:g=original	!	!LO:LB:g=original	!LO:LB:g=original	!	!	!LO:LB:g=original
=65	=65	=65	=65	=65	=65	=65
*	*^	*	*	*	*	*
!LO:TX:a:t=m.s.	!	!	!	!	!	!	!
2.D/] 2.F#] 2.A]	2.CCC#\] 2.CC#]	2.dd/ 2.ff#	2.d\] 2.f#] 2.a]	.	2.r	.	.
*Xped	*	*	*	*	*	*	*
*	*v	*v	*	*	*	*	*
=66	=66	=66	=66	=66	=66	=66
*	*ped	*	*	*	*	*
4r	[2.CCC#\ [2.CC#	2g#\ 2cc# 2ee#X 2gg#	.	2.r	.	.
[2C#/ [2E#X [2G#	.	.	.	.	.	.
.	.	[4c#/ [4e#X [<4g#	.	.	.	.
=67	=67	=67	=67	=67	=67	=67
*	*^	*	*	*	*	*
!LO:TX:a:t=m.s.	!	!	!	!	!	!	!
2C#/] 2E#] 2G#]	2CCC#\] 2CC#]	2cc#/ 2ee#X 2gg#	2c#\] 2e#] 2g#]	.	4r	.	.
.	.	.	.	.	4r	.	.
!	!	!	!	!	!	!	!LO:DY:a
*	*	*Xped	*	*	*	*	*
4ryy	4ryy	4r	4cc#\ 4ccc#	.	4cc#\	A	f
*v	*v	*v	*	*	*	*	*
=68	=68	=68	=68	=68	=68
*ped	*	*	*	*	*
(8FFF#/L 8FF#	(2ff#\ 2aa 2ccc# 2fff#	ff	4.ff#\	je-	.
16AA/L	.	.	.	.	.
16C#/JJ	.	.	.	.	.
16F#\LL	.	.	.	.	.
16A\	.	.	.	.	.
16c#\	.	.	8f#/	-śli	.
16f#\JJ)	.	.	.	.	.
*Xped	*	*	*	*	*
4r	4ff#\ 4aa 4ccc# 4fff#	.	8a/	pu-	.
.	.	.	8cc#\	-szczę	.
=69	=69	=69	=69	=69	=69
*ped	*	*	*	*	*
(8FFF#/L 8FF#	2ee\ 2aa 2eee	.	2ee\	cię	.
16AA/L	.	.	.	.	.
16C#/JJ	.	.	.	.	.
16F#\LL	.	.	.	.	.
16A\	.	.	.	.	.
16c#\	.	.	.	.	.
16f#\JJ)	.	.	.	.	.
*Xped	*	*	*	*	*
4r	4dd#X\) 4aa 4ddd#X	.	4dd#X\	z o-	.
!LO:LB:g=original	!LO:LB:g=original	!	!	!LO:LB:g=original	!
=70	=70	=70	=70	=70	=70
*	*^	*	*	*	*
*ped	*	*	*	*	*	*
(8FFF#/L 8FF#	2aa/	(2.ddn\ 2.ddd	.	2.ddn\	-pie-	.
16BB/L	.	.	.	.	.	.
16D/JJ	.	.	.	.	.	.
16F#\LL	.	.	.	.	.	.
16B\	.	.	.	.	.	.
16d\	.	.	.	.	.	.
16f#\JJ)	.	.	.	.	.	.
*Xped	*	*	*	*	*	*
4r	4gg#\	.	.	.	.	.
*	*v	*v	*	*	*	*
=71	=71	=71	=71	=71	=71
*ped	*	*	*	*	*
(8FFF#/L 8FF#	2cc#\) 2aa 2ccc#	.	4cc#\	-ki	.
16AA/L	.	.	.	.	.
16C#/JJ	.	.	.	.	.
16F#\LL	.	.	8r	.	.
16A\	.	.	.	.	.
16A\	.	.	8cc#\	ma	.
16c#\JJ	.	.	.	.	.
*Xped	*	*	*	*	*
4F#\) 4f#	4b\ 4dd#X 4ff# 4bb	.	8.b\	oj-	.
.	.	.	16f#/	-co-	.
=72	=72	=72	=72	=72	=72
!	!	!LO:HP:t=dim.	!	!	!
2E\ 2e	2cc#\ 2ee 2aa 2ccc#	>	4.a/	-wi-	.
!	!	!	!	!	!LO:DY:a
.	.	.	8cc#\	-zno,	>
4D#X\	4B/ 4f# 4b	.	8b\	mój	.
.	.	.	8f#/	za-	]]
=73	=73	=73	=73	=73	=73
*	*^	*	*	*	*
2Dn\	4a/	2B#X\ 2f#	.	4a/	-go-	.
.	2g#/	.	.	4g#/	-nie,	.
4C#/	.	4c#\ 4e#X	.	4r	.	.
!LO:LB:g=original	!	!LO:LB:g=original	!	!LO:LB:g=original	!	!
=74	=74	=74	=74	=74	=74	=74
8BB/L	8g#\L	2d\ 2f#	.	16g#/	niech-	.
.	.	.	.	16g#/	-aj	.
8AA/J	8a\J	.	.	8a/	mię	.
4GG#/	4b/	.	.	8b/	tra-	.
.	.	.	.	8b/	-pią	.
4BB/	4g#/	4d\ 4f#	.	8g#/	wie-	.
.	.	.	.	8g#/	-czne	.
=75	=75	=75	=75	=75	=75	=75
(2C#/	4c#\ 4f# 4g#	2ryy	.	4f#/	spie-	.
.	(>8e#X/L	.	.	8e#X/	-ki,	.
.	8f#/	.	.	8f#/	a	.
4BB#X/	8g#/	[4G#\	.	8g#/	na	.
.	8d#X/J	.	.	8d#X/	wet	.
*	*v	*v	*	*	*	*
=76	=76	=76	=76	=76	=76
8BBn/L	8G#/L] 8c# 8e#X	.	8e#X/	je-	.
8AA/J	8A/J 8c# 8f#	.	8f#/	-śli	.
4GG#/	4B/ 4e# 4g#	.	4g#/	łzę	.
4FF#/)	4c#/) 4f# 4a	.	8a/L	u-	.
.	.	.	8cc#/J	.	.
!LO:LB:g=original	!LO:LB:g=original	!	!LO:LB:g=original	!	!
=77	=77	=77	=77	=77	=77
*	*^	*	*	*	*
(2EE/	(4f#/ 4a	2d\	.	4cc#\	-ro-	.
.	4g#/) 4b	.	.	8b\	-nię	.
.	.	.	.	8r	.	.
!	!	!	!	!	!	!LO:DY:a
4E\)	4ee/	4e/	.	4e/	niech	f
*	*v	*v	*	*	*	*
=78	=78	=78	=78	=78	=78
4A\ 4c# 4e	4a\ 4cc# 4ee 4aa	f	8a/	spa-	.
.	.	.	8a/	-li	.
4E\ 4A 4c#	4cc#\ 4ee 4aa 4ccc#	.	8cc#\	się	.
.	.	.	8cc#\	w po-	.
4C#\ 4E 4A	4ee\ 4aa 4ccc# 4eee	.	8.ee\	-ża-	.
.	.	.	16ee\	-rów	.
=79	=79	=79	=79	=79	=79
*^	*^	*	*	*	*
2.d/	4D\	4ffn/ 4aa 4bb	2.b\	.	4b^\	dy-	.
.	4E\	4ee/ [4gg#	.	.	8b\	-mie	.
.	.	.	.	.	8r	.	.
.	4E#X\	4dd/ 4gg#]	.	.	4b\	i	.
*v	*v	*	*	*	*	*	*
*	*v	*v	*	*	*	*
=80	=80	=80	=80	=80	=80
!	!	!	!	!	!LO:DY:a
4F#\ 4c#	4a\ 4cc# 4ff# 4aa	<	8a/	niech	<
.	.	.	8a/	prze-	.
4En\ 4en	4cc#\ 4ff# 4aa 4ccc#	.	8cc#\	-pad-	.
.	.	.	8cc#\	-nie	.
4D\ 4d	4ff#\ 4aa 4ccc# 4fff#	[[	8ff#\	mo-	.
.	.	.	8ff#\	-je	[[
!LO:LB:g=original	!LO:LB:g=original	!	!LO:LB:g=original	!	!
=81	=81	=81	=81	=81	=81
2.C#\ 2.c#	4aa\ 4ccc# 4fff# 4aaa	.	4cc#\	i-	.
.	(4b\ 4dd#X 4gg#	.	4b\	-mię	.
.	4cc#\ 4ee 4aa	.	4a/	na	.
=82	=82	=82	=82	=82	=82
*^	*^	*	*	*	*
*	*^	*	*	*	*	*	*
4r	[2.CC#\ [2.C#	4ryy	2.dd#X/ 2.ff#	2.b\ 2.bb	.	[2.g#/	wie-	.
4ryy	.	[2G#/	.	.	.	.	.	.
[4g#/	.	.	.	.	.	.	.	.
=83	=83	=83	=83	=83	=83	=83	=83	=83
2.g#/]	2.CC#\] 2.C#]	2.G#/]	2.ee#X/ 2.gg#	2.b\ 2.bb	.	2.g#/]	.	.
*	*v	*v	*	*	*	*	*	*
=84	=84	=84	=84	=84	=84	=84	=84
(4C#/	2.FF#\	4aa\)	4a\ 4ff#	p	[2.f#/	-ki!	.
4D/	.	([2f#/	4A\	<	.	.	.
4E/	.	.	4A#X\	.	.	.	.
=85	=85	=85	=85	=85	=85	=85	=85
4D/	2.FF#\	2f#/]	4B\	.	2.f#/]	.	.
4C#/	.	.	8c#\L	[	.	.	.
.	.	.	8d\J	>	.	.	.
4F#/)	.	4d/ 4f#	8c#\L	.	.	.	.
.	.	.	8B\J	.	.	.	.
*v	*v	*	*	*	*	*	*
*	*v	*v	*	*	*	*
=86	=86	=86	=86	=86	=86
4FF#/	4A/) 4c# 4f# 4a	]	2.r	.	.
[2FF#/	[2F#/	.	.	.	.
=87	=87	=87	=87	=87	=87
*^	*	*	*	*	*
2.FF#/]	2.FFF#;\	2.F#;/]	.	2.r;	.	.
*v	*v	*	*	*	*	*
==	==	==	==	==	==
*-	*-	*-	*-	*-	*-
!!!RDF**kern: > = above
!!!RDF**kern: < = below
!!!system-decoration: s1[(s2,s3)]
!!!ENC: Andrzej Gręziak
!!!END: 2022-08-18
!!!ENC: Julita Ruszuk
!!!END: 2022-09-22
!!!YEC: Copyright 2022 Narodowy Instytut Fryderyka Chopina (https://polishscores.org)
!!!YEM: License CC-BY-4.0 (https://creativecommons.org/licenses/by/4.0)
